Newaita-dark/apps/64/alienarena.svg

<svg height="64pt" viewBox="0 0 64 64" width="64pt" xmlns="http://www.w3.org/2000/svg" xmlns:xlink="http://www.w3.org/1999/xlink"><linearGradient id="a" gradientUnits="userSpaceOnUse" x1="31.75304" x2="31.75304" y1="56.067872" y2="58.71396000006"><stop offset="0" stop-opacity=".27451"/><stop offset="1" stop-opacity="0"/></linearGradient><linearGradient id="b"><stop offset="0" stop-opacity=".313726"/><stop offset=".222222" stop-opacity=".27451"/><stop offset="1" stop-opacity="0"/></linearGradient><radialGradient id="c" cx="450.908936" cy="189.579361" gradientTransform="matrix(.00000035 -.156265 -.281277 -.0000002 85.738694 127.190665)" gradientUnits="userSpaceOnUse" r="21.166656" xlink:href="#b"/><radialGradient id="d" cx="450.908936" cy="189.579361" gradientTransform="matrix(-.00000035 .156265 .281277 .0000002 -22.23263 -15.054958)" gradientUnits="userSpaceOnUse" r="21.166656" xlink:href="#b"/><radialGradient id="e" cx="450.908936" cy="189.579361" gradientTransform="matrix(-.00000035 -.156265 .281277 -.0000002 -22.23263 127.190665)" gradientUnits="userSpaceOnUse" r="21.166656" xlink:href="#b"/><radialGradient id="f" cx="450.908936" cy="189.579361" gradientTransform="matrix(.00000035 .156265 -.281277 .0000002 85.73869 -15.054959)" gradientUnits="userSpaceOnUse" r="21.166656" xlink:href="#b"/><linearGradient id="g" gradientUnits="userSpaceOnUse" x1="32.765491215" x2="33.07607994314" y1="55.85940674838" y2="5.79222158422"><stop offset="0" stop-color="#66bb6a"/><stop offset="1" stop-color="#81c784"/></linearGradient><linearGradient id="h"><stop offset="0" stop-color="#272b2d"/><stop offset="1" stop-color="#33393e"/></linearGradient><linearGradient id="i" gradientUnits="userSpaceOnUse" x1="24.286898" x2="24.286898" xlink:href="#h" y1="37.887534" y2="25.281034"/><linearGradient id="j" gradientTransform="matrix(-1.26065 0 0 1.26065 61.910868 -4.974566)" gradientUnits="userSpaceOnUse" x1="18" x2="18" xlink:href="#h" y1="34" y2="24"/><path d="m30.429688 55.871094h2.644531v2.941406h-2.644531zm0 0" fill="url(#a)"/><path d="m33.074219 56.066406h5.292969v-2.644531h-5.292969zm0 0" fill="url(#c)"/><path d="m30.429688 56.066406h-5.292969v2.648438h5.292969zm0 0" fill="url(#d)"/><path d="m30.429688 56.066406h-5.292969v-2.644531h5.292969zm0 0" fill="url(#e)"/><path d="m33.074219 56.066406h5.292969v2.648438h-5.292969zm0 0" fill="url(#f)"/><path d="m11.90625 25.316406c0 12.847656 10.609375 30.621094 19.980469 30.621094 8.820312 0 19.976562-17.773438 19.976562-30.621094s-8.945312-19.324218-19.976562-19.324218c-11.035157 0-19.980469 6.476562-19.980469 19.324218zm0 0" fill="url(#g)"/><path d="m31.886719 5.992188c-11.035157 0-19.980469 6.476562-19.980469 19.324218 0 .167969.003906.332032.007812.5.25-12.480468 9.097657-18.777344 19.972657-18.777344 10.871093 0 19.714843 6.292969 19.96875 18.769532.003906-.164063.007812-.328125.007812-.492188 0-12.847656-8.945312-19.324218-19.976562-19.324218zm0 0" fill="#fff" fill-opacity=".392157"/><path d="m51.851562 24.589844c-.371093 12.789062-11.296874 29.953125-19.964843 29.953125-9.207031 0-19.613281-17.15625-19.96875-29.945313-.007813.238282-.011719.476563-.011719.71875 0 12.847656 10.609375 30.617188 19.980469 30.617188 8.820312 0 19.976562-17.769532 19.976562-30.617188 0-.242187-.003906-.484375-.011719-.726562zm0 0" fill-opacity=".235294"/><path d="m95.240905-12.488089c0 102.771436 84.866896 244.945359 159.828487 244.945359 70.555762 0 159.79724-142.173923 159.79724-244.945359s-71.555667-154.578988-159.79724-154.578988c-88.27282 0-159.828487 51.807552-159.828487 154.578988zm0 0" fill="none" stroke="#212121" stroke-width="3" transform="matrix(.125012 0 0 .125012 0 26.877566)"/><path d="m16.945312 25.675781c3.28125-.683593 6.835938.230469 9.382813 2.742188s3.472656 6.015625 2.777344 9.25c-3.277344.683593-6.832031-.230469-9.378907-2.742188-2.546874-2.511719-3.472656-6.015625-2.78125-9.25zm0 0" fill="url(#i)"/><path d="m46.5625 25.675781c-3.28125-.683593-6.835938.230469-9.382812 2.742188-2.546876 2.511719-3.472657 6.015625-2.78125 9.25 3.28125.683593 6.835937-.230469 9.382812-2.742188s3.472656-6.015625 2.78125-9.25zm0 0" fill="url(#j)"/><path d="m39.691406 28.285156c-.71875-.191406-1.496094.0625-2.054687.757813-.558594.691406-.761719 1.660156-.609375 2.554687.71875.1875 1.496094-.0625 2.054687-.757812.558594-.695313.761719-1.660156.609375-2.554688zm0 0" fill="#fff" fill-opacity=".196078"/><path d="m21.1875 28.285156c-.71875-.191406-1.496094.0625-2.054688.757813-.558593.691406-.761718 1.660156-.609374 2.554687.71875.1875 1.496093-.0625 2.054687-.757812.558594-.695313.761719-1.660156.609375-2.554688zm0 0" fill="#fff" fill-opacity=".196078"/><g fill="none" stroke="#212121" stroke-width="3" transform="matrix(.125012 0 0 .125012 0 26.877566)"><path d="m135.549556-9.613363c26.247493-5.468228 54.682278 1.843574 75.055332 21.935405 20.373055 20.091831 27.778598 48.120405 22.216629 73.992934-26.216247 5.468228-54.651031-1.843574-75.024086-21.935405-20.373054-20.091832-27.778597-48.120405-22.247875-73.992934zm0 0"/><path d="m372.464431-9.613363c-26.247493-5.468228-54.682278 1.843574-75.055332 21.935405-20.373055 20.091831-27.778597 48.120405-22.247876 73.992934 26.247494 5.468228 54.682279-1.843574 75.055333-21.935405 20.373054-20.091832 27.778597-48.120405 22.247875-73.992934zm0 0"/></g></svg>

<?xml version="1.0" encoding="UTF-8"?>
<svg xmlns="http://www.w3.org/2000/svg" xmlns:xlink="http://www.w3.org/1999/xlink" width="64pt" height="64pt" viewBox="0 0 64 64" version="1.1">
<defs>
<linearGradient id="linear0" gradientUnits="userSpaceOnUse" x1="254" y1="233.5" x2="254" y2="254.666672" gradientTransform="matrix(0.125012,0,0,0.125012,-0.00000763012,26.87757)">
<stop offset="0" style="stop-color:rgb(0%,0%,0%);stop-opacity:0.27451;"/>
<stop offset="1" style="stop-color:rgb(0%,0%,0%);stop-opacity:0;"/>
</linearGradient>
<radialGradient id="radial0" gradientUnits="userSpaceOnUse" cx="450.908936" cy="189.579361" fx="450.908936" fy="189.579361" r="21.166656" gradientTransform="matrix(0.000000348341,-0.156265,-0.281277,-0.000000203077,85.738694,127.190665)">
<stop offset="0" style="stop-color:rgb(0%,0%,0%);stop-opacity:0.313726;"/>
<stop offset="0.222222" style="stop-color:rgb(0%,0%,0%);stop-opacity:0.27451;"/>
<stop offset="1" style="stop-color:rgb(0%,0%,0%);stop-opacity:0;"/>
</radialGradient>
<radialGradient id="radial1" gradientUnits="userSpaceOnUse" cx="450.908936" cy="189.579361" fx="450.908936" fy="189.579361" r="21.166656" gradientTransform="matrix(-0.000000348341,0.156265,0.281277,0.000000203077,-22.23263,-15.054958)">
<stop offset="0" style="stop-color:rgb(0%,0%,0%);stop-opacity:0.313726;"/>
<stop offset="0.222222" style="stop-color:rgb(0%,0%,0%);stop-opacity:0.27451;"/>
<stop offset="1" style="stop-color:rgb(0%,0%,0%);stop-opacity:0;"/>
</radialGradient>
<radialGradient id="radial2" gradientUnits="userSpaceOnUse" cx="450.908936" cy="189.579361" fx="450.908936" fy="189.579361" r="21.166656" gradientTransform="matrix(-0.000000348341,-0.156265,0.281277,-0.000000203077,-22.23263,127.190665)">
<stop offset="0" style="stop-color:rgb(0%,0%,0%);stop-opacity:0.313726;"/>
<stop offset="0.222222" style="stop-color:rgb(0%,0%,0%);stop-opacity:0.27451;"/>
<stop offset="1" style="stop-color:rgb(0%,0%,0%);stop-opacity:0;"/>
</radialGradient>
<radialGradient id="radial3" gradientUnits="userSpaceOnUse" cx="450.908936" cy="189.579361" fx="450.908936" fy="189.579361" r="21.166656" gradientTransform="matrix(0.000000348341,0.156265,-0.281277,0.000000203077,85.73869,-15.054959)">
<stop offset="0" style="stop-color:rgb(0%,0%,0%);stop-opacity:0.313726;"/>
<stop offset="0.222222" style="stop-color:rgb(0%,0%,0%);stop-opacity:0.27451;"/>
<stop offset="1" style="stop-color:rgb(0%,0%,0%);stop-opacity:0;"/>
</radialGradient>
<linearGradient id="linear1" gradientUnits="userSpaceOnUse" x1="24.705" y1="43.938999" x2="24.953745" y2="3.841079" gradientTransform="matrix(1.248623,0,0,1.248623,1.91826,0.996162)">
<stop offset="0" style="stop-color:rgb(40.000001%,73.333335%,41.568628%);stop-opacity:1;"/>
<stop offset="1" style="stop-color:rgb(50.588238%,78.039217%,51.764709%);stop-opacity:1;"/>
</linearGradient>
<linearGradient id="linear2" gradientUnits="userSpaceOnUse" x1="18" y1="34" x2="18" y2="24" gradientTransform="matrix(1.26065,0,0,1.26065,1.595198,-4.974566)">
<stop offset="0" style="stop-color:rgb(15.294118%,16.862746%,17.647059%);stop-opacity:1;"/>
<stop offset="1" style="stop-color:rgb(20%,22.352941%,24.313726%);stop-opacity:1;"/>
</linearGradient>
<linearGradient id="linear3" gradientUnits="userSpaceOnUse" x1="18" y1="34" x2="18" y2="24" gradientTransform="matrix(-1.26065,0,0,1.26065,61.910868,-4.974566)">
<stop offset="0" style="stop-color:rgb(15.294118%,16.862746%,17.647059%);stop-opacity:1;"/>
<stop offset="1" style="stop-color:rgb(20%,22.352941%,24.313726%);stop-opacity:1;"/>
</linearGradient>
</defs>
<g id="surface1">
<path style=" stroke:none;fill-rule:nonzero;fill:url(#linear0);" d="M 30.429688 55.871094 L 33.074219 55.871094 L 33.074219 58.8125 L 30.429688 58.8125 Z M 30.429688 55.871094 "/>
<path style=" stroke:none;fill-rule:nonzero;fill:url(#radial0);" d="M 33.074219 56.066406 L 38.367188 56.066406 L 38.367188 53.421875 L 33.074219 53.421875 Z M 33.074219 56.066406 "/>
<path style=" stroke:none;fill-rule:nonzero;fill:url(#radial1);" d="M 30.429688 56.066406 L 25.136719 56.066406 L 25.136719 58.714844 L 30.429688 58.714844 Z M 30.429688 56.066406 "/>
<path style=" stroke:none;fill-rule:nonzero;fill:url(#radial2);" d="M 30.429688 56.066406 L 25.136719 56.066406 L 25.136719 53.421875 L 30.429688 53.421875 Z M 30.429688 56.066406 "/>
<path style=" stroke:none;fill-rule:nonzero;fill:url(#radial3);" d="M 33.074219 56.066406 L 38.367188 56.066406 L 38.367188 58.714844 L 33.074219 58.714844 Z M 33.074219 56.066406 "/>
<path style=" stroke:none;fill-rule:nonzero;fill:url(#linear1);" d="M 11.90625 25.316406 C 11.90625 38.164062 22.515625 55.9375 31.886719 55.9375 C 40.707031 55.9375 51.863281 38.164062 51.863281 25.316406 C 51.863281 12.46875 42.917969 5.992188 31.886719 5.992188 C 20.851562 5.992188 11.90625 12.46875 11.90625 25.316406 Z M 11.90625 25.316406 "/>
<path style=" stroke:none;fill-rule:nonzero;fill:rgb(100%,100%,100%);fill-opacity:0.392157;" d="M 31.886719 5.992188 C 20.851562 5.992188 11.90625 12.46875 11.90625 25.316406 C 11.90625 25.484375 11.910156 25.648438 11.914062 25.816406 C 12.164062 13.335938 21.011719 7.039062 31.886719 7.039062 C 42.757812 7.039062 51.601562 13.332031 51.855469 25.808594 C 51.859375 25.644531 51.863281 25.480469 51.863281 25.316406 C 51.863281 12.46875 42.917969 5.992188 31.886719 5.992188 Z M 31.886719 5.992188 "/>
<path style=" stroke:none;fill-rule:nonzero;fill:rgb(0%,0%,0%);fill-opacity:0.235294;" d="M 51.851562 24.589844 C 51.480469 37.378906 40.554688 54.542969 31.886719 54.542969 C 22.679688 54.542969 12.273438 37.386719 11.917969 24.597656 C 11.910156 24.835938 11.90625 25.074219 11.90625 25.316406 C 11.90625 38.164062 22.515625 55.933594 31.886719 55.933594 C 40.707031 55.933594 51.863281 38.164062 51.863281 25.316406 C 51.863281 25.074219 51.859375 24.832031 51.851562 24.589844 Z M 51.851562 24.589844 "/>
<path style="fill:none;stroke-width:3;stroke-linecap:butt;stroke-linejoin:miter;stroke:rgb(12.941177%,12.941177%,12.941177%);stroke-opacity:1;stroke-miterlimit:4;" d="M 95.240905 -12.488089 C 95.240905 90.283347 180.107801 232.45727 255.069392 232.45727 C 325.625154 232.45727 414.866632 90.283347 414.866632 -12.488089 C 414.866632 -115.259525 343.310965 -167.067077 255.069392 -167.067077 C 166.796572 -167.067077 95.240905 -115.259525 95.240905 -12.488089 Z M 95.240905 -12.488089 " transform="matrix(0.125012,0,0,0.125012,0,26.877566)"/>
<path style=" stroke:none;fill-rule:nonzero;fill:url(#linear2);" d="M 16.945312 25.675781 C 20.226562 24.992188 23.78125 25.90625 26.328125 28.417969 C 28.875 30.929688 29.800781 34.433594 29.105469 37.667969 C 25.828125 38.351562 22.273438 37.4375 19.726562 34.925781 C 17.179688 32.414062 16.253906 28.910156 16.945312 25.675781 Z M 16.945312 25.675781 "/>
<path style=" stroke:none;fill-rule:nonzero;fill:url(#linear3);" d="M 46.5625 25.675781 C 43.28125 24.992188 39.726562 25.90625 37.179688 28.417969 C 34.632812 30.929688 33.707031 34.433594 34.398438 37.667969 C 37.679688 38.351562 41.234375 37.4375 43.78125 34.925781 C 46.328125 32.414062 47.253906 28.910156 46.5625 25.675781 Z M 46.5625 25.675781 "/>
<path style=" stroke:none;fill-rule:nonzero;fill:rgb(100%,100%,100%);fill-opacity:0.196078;" d="M 39.691406 28.285156 C 38.972656 28.09375 38.195312 28.347656 37.636719 29.042969 C 37.078125 29.734375 36.875 30.703125 37.027344 31.597656 C 37.746094 31.785156 38.523438 31.535156 39.082031 30.839844 C 39.640625 30.144531 39.84375 29.179688 39.691406 28.285156 Z M 39.691406 28.285156 "/>
<path style=" stroke:none;fill-rule:nonzero;fill:rgb(100%,100%,100%);fill-opacity:0.196078;" d="M 21.1875 28.285156 C 20.46875 28.09375 19.691406 28.347656 19.132812 29.042969 C 18.574219 29.734375 18.371094 30.703125 18.523438 31.597656 C 19.242188 31.785156 20.019531 31.535156 20.578125 30.839844 C 21.136719 30.144531 21.339844 29.179688 21.1875 28.285156 Z M 21.1875 28.285156 "/>
<path style="fill:none;stroke-width:3;stroke-linecap:butt;stroke-linejoin:miter;stroke:rgb(12.941177%,12.941177%,12.941177%);stroke-opacity:1;stroke-miterlimit:4;" d="M 135.549556 -9.613363 C 161.797049 -15.081591 190.231834 -7.769789 210.604888 12.322042 C 230.977943 32.413873 238.383486 60.442447 232.821517 86.314976 C 206.60527 91.783204 178.170486 84.471402 157.797431 64.379571 C 137.424377 44.287739 130.018834 16.259166 135.549556 -9.613363 Z M 135.549556 -9.613363 " transform="matrix(0.125012,0,0,0.125012,0,26.877566)"/>
<path style="fill:none;stroke-width:3;stroke-linecap:butt;stroke-linejoin:miter;stroke:rgb(12.941177%,12.941177%,12.941177%);stroke-opacity:1;stroke-miterlimit:4;" d="M 372.464431 -9.613363 C 346.216938 -15.081591 317.782153 -7.769789 297.409099 12.322042 C 277.036044 32.413873 269.630502 60.442447 275.161223 86.314976 C 301.408717 91.783204 329.843502 84.471402 350.216556 64.379571 C 370.58961 44.287739 377.995153 16.259166 372.464431 -9.613363 Z M 372.464431 -9.613363 " transform="matrix(0.125012,0,0,0.125012,0,26.877566)"/>
</g>
</svg>
